64x64/apps/com.georgefb.haruna.svg

<svg xmlns="http://www.w3.org/2000/svg" width="64" height="64" version="1">
 <rect style="opacity:0.2" width="56" height="56" x="4" y="5" rx="2.8" ry="2.8"/>
 <rect style="fill:#4d525a" width="56" height="56" x="4" y="4" rx="2.8" ry="2.8"/>
 <path style="opacity:0.1;fill:#f4f4f7" d="M 6.8007812 4 C 5.2495812 4 4 5.2495812 4 6.8007812 L 4 7.8007812 C 4 6.2495813 5.2495812 5 6.8007812 5 L 57.199219 5 C 58.750419 5 60 6.2495812 60 7.8007812 L 60 6.8007812 C 60 5.2495813 58.750419 4 57.199219 4 L 6.8007812 4 z"/>
 <path style="opacity:0.2" d="M 10,9 V 57 H 20.062 L 20,39 H 44 V 57 H 54 V 9 H 44 V 29 H 20 V 9 Z"/>
 <path style="fill:#cccccc" d="M 10,8 V 56 H 20.062 L 20,38 H 44 V 56 H 54 V 8 H 44 V 28 H 20 V 8 Z"/>
 <path style="opacity:0.1" d="M 12,15 V 21 H 18 V 15 Z M 46,15 V 21 H 52 V 15 Z M 12,31 V 37 H 18 V 31 Z M 46,31 V 37 H 52 V 31 Z M 12,45 V 51 H 18 V 45 Z M 46,45 V 51 H 52 V 45 Z"/>
 <path style="fill:#4d525a" d="M 12,14 V 20 H 18 V 14 Z M 46,14 V 20 H 52 V 14 Z M 12,30 V 36 H 18 V 30 Z M 46,30 V 36 H 52 V 30 Z M 12,44 V 50 H 18 V 44 Z M 46,44 V 50 H 52 V 44 Z"/>
</svg>

<svg xmlns="http://www.w3.org/2000/svg" width="64" height="64" version="1"><rect style="opacity:.2" width="56" height="56" x="4" y="5" rx="2.8" ry="2.8"/><rect style="fill:#4d525a" width="56" height="56" x="4" y="4" rx="2.8" ry="2.8"/><path style="opacity:.1;fill:#f4f4f7" d="M6.8 4C5.25 4 4 5.25 4 6.8v1C4 6.25 5.25 5 6.8 5h50.4C58.75 5 60 6.25 60 7.8v-1C60 5.25 58.75 4 57.2 4H6.8z"/><path style="opacity:.2" d="M10 9v48h10.062L20 39h24v18h10V9H44v20H20V9z"/><path style="fill:#ccc" d="M10 8v48h10.062L20 38h24v18h10V8H44v20H20V8z"/><path style="opacity:.1" d="M12 15v6h6v-6zm34 0v6h6v-6zM12 31v6h6v-6zm34 0v6h6v-6zM12 45v6h6v-6zm34 0v6h6v-6z"/><path style="fill:#4d525a" d="M12 14v6h6v-6zm34 0v6h6v-6zM12 30v6h6v-6zm34 0v6h6v-6zM12 44v6h6v-6zm34 0v6h6v-6z"/></svg>
